SpaceAPI/occupied.svg

<?xml version="1.0" encoding="UTF-8" standalone="no"?>
<svg
   xmlns:dc="http://purl.org/dc/elements/1.1/"
   xmlns:cc="http://creativecommons.org/ns#"
   xmlns:rdf="http://www.w3.org/1999/02/22-rdf-syntax-ns#"
   xmlns:svg="http://www.w3.org/2000/svg"
   xmlns="http://www.w3.org/2000/svg"
   xmlns:sodipodi="http://sodipodi.sourceforge.net/DTD/sodipodi-0.dtd"
   xmlns:inkscape="http://www.inkscape.org/namespaces/inkscape"
   width="320"
   height="64"
   id="svg3024"
   version="1.1"
   inkscape:version="1.0.1 (3bc2e813f5, 2020-09-07)"
   sodipodi:docname="occupied.svg"
   inkscape:export-filename="/home/alex/Verschiedenes/netz39/github/space_notification/SpaceAPI/occupied.png"
   inkscape:export-xdpi="60.000004"
   inkscape:export-ydpi="60.000004">
  <defs
     id="defs3026">
    <rect
       x="54.181774"
       y="919.68642"
       width="195.76756"
       height="56.794781"
       id="rect20" />
  </defs>
  <sodipodi:namedview
     id="base"
     pagecolor="#ffffff"
     bordercolor="#666666"
     borderopacity="1.0"
     inkscape:pageopacity="0.0"
     inkscape:pageshadow="2"
     inkscape:zoom="1"
     inkscape:cx="160"
     inkscape:cy="32"
     inkscape:document-units="px"
     inkscape:current-layer="layer1"
     showgrid="false"
     inkscape:window-width="1366"
     inkscape:window-height="703"
     inkscape:window-x="0"
     inkscape:window-y="0"
     inkscape:window-maximized="1"
     inkscape:document-rotation="0" />
  <metadata
     id="metadata3029">
    <rdf:RDF>
      <cc:Work
         rdf:about="">
        <dc:format>image/svg+xml</dc:format>
        <dc:type
           rdf:resource="http://purl.org/dc/dcmitype/StillImage" />
        <dc:title />
        <dc:creator>
          <cc:Agent>
            <dc:title>Netz39 e.V.</dc:title>
          </cc:Agent>
        </dc:creator>
      </cc:Work>
    </rdf:RDF>
  </metadata>
  <g
     inkscape:label="Layer 1"
     inkscape:groupmode="layer"
     id="layer1"
     transform="translate(0,-988.36218)">
    <rect
       style="fill:#ee992e;fill-opacity:1;fill-rule:nonzero;stroke:none"
       id="rect3885"
       width="320"
       height="64"
       x="0"
       y="988.36218"
       inkscape:export-xdpi="56.25"
       inkscape:export-ydpi="56.25" />
    <g
       id="g3051"
       transform="matrix(0.21280164,0,0,0.21280164,-31.232488,931.39483)"
       style="fill:#ffffff;fill-opacity:1">
      <g
         id="g4413"
         transform="translate(-300.90976,200.37514)"
         style="fill:#ffffff;fill-opacity:1">
        <path
           sodipodi:nodetypes="ccccsssccssccc"
           inkscape:connector-curvature="0"
           style="color:#000000;display:inline;overflow:visible;visibility:visible;fill:#ffffff;fill-opacity:1;fill-rule:evenodd;stroke:none;stroke-width:19.9998;marker:none;enable-background:accumulate"
           id="path4996-4-0-4-8-9-7-2-6-0-9-9-2"
           d="m 534.12054,161.88159 v 10.40612 h 47.25268 c -9.52806,9.54312 -19.06966,19.07261 -28.62694,28.58644 h 12.59261 c 20.11218,0 36.40116,16.32948 36.40116,36.44165 0,20.11218 -16.28898,36.40117 -36.40116,36.40117 -20.11217,0 -36.44165,-16.28899 -36.44165,-36.40117 h -10.40612 c 0,25.8585 20.98928,46.8073 46.84777,46.8073 25.85849,0 46.80728,-20.9488 46.80728,-46.8073 0,-21.99252 -15.15229,-40.48031 -35.59135,-45.51157 l 29.96314,-29.92264 z" />
        <g
           id="g4409"
           transform="rotate(180,565.31865,237.59126)"
           style="fill:#ffffff;fill-opacity:1">
          <path
             inkscape:connector-curvature="0"
             style="color:#000000;display:inline;overflow:visible;visibility:visible;fill:#ffffff;fill-opacity:1;fill-rule:evenodd;stroke:none;stroke-width:20;marker:none;enable-background:accumulate"
             id="path4996-4-0-4-2-1-9-8-5-8-9"
             d="m 565.33889,208.68886 c -15.80241,0 -28.62694,12.82454 -28.62694,28.62694 0,12.13086 7.56029,22.4873 18.22083,26.6429 v -11.74231 c -4.72379,-3.28183 -7.81471,-8.71082 -7.81471,-14.90059 0,-10.05608 8.16474,-18.22082 18.22082,-18.22082 10.05608,0 18.18034,8.16474 18.18034,18.22082 0,6.17974 -3.07517,11.61703 -7.77422,14.90059 v 11.74231 c 10.64945,-4.1556 18.18033,-14.51204 18.18033,-26.6429 0,-15.8024 -12.78404,-28.62694 -28.58645,-28.62694 z" />
          <path
             inkscape:connector-curvature="0"
             style="color:#000000;display:inline;overflow:visible;visibility:visible;fill:#ffffff;fill-opacity:1;fill-rule:evenodd;stroke:none;stroke-width:20;marker:none;enable-background:accumulate"
             id="rect5023-1-6-7-7-5-2-9-1-8-8"
             d="m 565.33889,232.0925 c -2.87317,0 -5.2233,2.35013 -5.2233,5.2233 v 31.17786 h 10.40612 V 237.3158 c 0,-2.87317 -2.30965,-5.2233 -5.18282,-5.2233 z" />
        </g>
        <path
           inkscape:connector-curvature="0"
           style="fill:#ffffff;fill-opacity:1;stroke:none"
           id="path5018-1-3-2-1-4-7-5-6"
           d="m 630.85289,149.49143 c -5.72232,0.0544 -10.36388,0.85328 -11.49937,1.53864 -2.27103,1.37086 -2.80747,4.65767 -2.10552,5.42576 0.70195,0.76784 11.43046,7.65845 16.11531,9.92023 12.61445,6.09045 -1.28767,29.39594 -12.14722,25.22572 -7.69621,-2.95537 -16.42692,-11.75721 -17.8969,-11.82329 -1.46996,-0.0648 -3.36351,0.9263 -3.84662,3.4822 -0.48303,2.55591 3.00841,14.89689 11.7828,24.49689 10.52926,11.52022 26.92634,-1.20851 26.92634,9.31286 v 48.87231 a 13.017768,13.017768 0 0 0 26.03553,0 v -62.4367 -14.57666 c 0,-5.46709 6.70282,-27.38877 -15.46745,-36.56312 -5.37441,-2.22388 -12.17459,-2.92922 -17.8969,-2.87484 z" />
      </g>
      <path
         inkscape:connector-curvature="0"
         style="color:#000000;display:inline;overflow:visible;visibility:visible;fill:#ffffff;fill-opacity:1;fill-rule:evenodd;stroke:none;stroke-width:10.416;marker:none;enable-background:accumulate"
         id="path7438-70-0-9-0-2"
         d="m 297.14286,291.19777 c -70.07087,0 -126.87872,56.8078 -126.87872,126.87871 0,70.0708 56.80785,126.87869 126.87872,126.87869 70.07082,0 126.87872,-56.80789 126.87872,-126.87869 0,-70.07091 -56.8079,-126.87871 -126.87872,-126.87871 z m 0,17.3855 c 60.46032,0 109.45402,49.0329 109.45402,109.49321 0,60.4603 -48.9937,109.45399 -109.45402,109.45399 -60.47223,0.3888 -108.64534,-55.93299 -109.49317,-109.45399 0,-60.46031 49.03291,-109.49321 109.49323,-109.49321 z" />
    </g>
    <text
       xml:space="preserve"
       id="text18"
       style="font-style:normal;font-variant:normal;font-weight:normal;font-stretch:normal;font-size:62.9817px;line-height:1.25;font-family:'Politics Head';-inkscape-font-specification:'Politics Head, Normal';font-variant-ligatures:normal;font-variant-caps:normal;font-variant-numeric:normal;font-variant-east-asian:normal;letter-spacing:0px;word-spacing:0px;white-space:pre;fill:#ffffff;fill-opacity:1;stroke:none;stroke-width:0.984097"
       x="78.82151"
       y="912.31732"
       transform="scale(0.87474693,1.1431878)"><tspan
         id="tspan22"
         style="font-style:normal;font-variant:normal;font-weight:normal;font-stretch:normal;font-size:62.9817px;font-family:'Politics Head';-inkscape-font-specification:'Politics Head, Normal';font-variant-ligatures:normal;font-variant-caps:normal;font-variant-numeric:normal;font-variant-east-asian:normal;fill:#ffffff;stroke-width:0.984097">occupied</tspan></text>
  </g>
</svg>

<?xml version="1.0" encoding="UTF-8" standalone="no"?>
<svg
   xmlns:dc="http://purl.org/dc/elements/1.1/"
   xmlns:cc="http://creativecommons.org/ns#"
   xmlns:rdf="http://www.w3.org/1999/02/22-rdf-syntax-ns#"
   xmlns:svg="http://www.w3.org/2000/svg"
   xmlns="http://www.w3.org/2000/svg"
   xmlns:sodipodi="http://sodipodi.sourceforge.net/DTD/sodipodi-0.dtd"
   xmlns:inkscape="http://www.inkscape.org/namespaces/inkscape"
   width="320"
   height="64"
   id="svg3024"
   version="1.1"
   inkscape:version="1.0.1 (3bc2e813f5, 2020-09-07)"
   sodipodi:docname="occupied.svg"
   inkscape:export-filename="/home/tux/Netz39/penguineer_space_notification/SpaceAPI/occupied.png"
   inkscape:export-xdpi="60.000004"
   inkscape:export-ydpi="60.000004">
  <defs
     id="defs3026" />
  <sodipodi:namedview
     id="base"
     pagecolor="#ffffff"
     bordercolor="#666666"
     borderopacity="1.0"
     inkscape:pageopacity="0.0"
     inkscape:pageshadow="2"
     inkscape:zoom="5.12"
     inkscape:cx="148.09991"
     inkscape:cy="63.723708"
     inkscape:document-units="px"
     inkscape:current-layer="layer1"
     showgrid="false"
     inkscape:window-width="2560"
     inkscape:window-height="1379"
     inkscape:window-x="0"
     inkscape:window-y="0"
     inkscape:window-maximized="1"
     inkscape:document-rotation="0" />
  <metadata
     id="metadata3029">
    <rdf:RDF>
      <cc:Work
         rdf:about="">
        <dc:format>image/svg+xml</dc:format>
        <dc:type
           rdf:resource="http://purl.org/dc/dcmitype/StillImage" />
        <dc:title />
      </cc:Work>
    </rdf:RDF>
  </metadata>
  <g
     inkscape:label="Layer 1"
     inkscape:groupmode="layer"
     id="layer1"
     transform="translate(0,-988.36218)">
    <rect
       style="fill:#ee992e;fill-opacity:1;fill-rule:nonzero;stroke:none"
       id="rect3885"
       width="320"
       height="64"
       x="0"
       y="988.36218"
       inkscape:export-xdpi="56.25"
       inkscape:export-ydpi="56.25" />
    <g
       id="g3051"
       transform="matrix(0.21280164,0,0,0.21280164,-31.232488,931.39483)"
       style="fill:#ffffff;fill-opacity:1">
      <g
         id="g4413"
         transform="translate(-300.90976,200.37514)"
         style="fill:#ffffff;fill-opacity:1">
        <path
           sodipodi:nodetypes="ccccsssccssccc"
           inkscape:connector-curvature="0"
           style="color:#000000;fill:#ffffff;fill-opacity:1;fill-rule:evenodd;stroke:none;stroke-width:19.99983215;marker:none;visibility:visible;display:inline;overflow:visible;enable-background:accumulate"
           id="path4996-4-0-4-8-9-7-2-6-0-9-9-2"
           d="M 534.12054,161.88159 534.12054,172.28771 581.37322,172.28771 C 571.84516,181.83083 562.30356,191.36032 552.74628,200.87415 L 565.33889,200.87415 C 585.45107,200.87415 601.74005,217.20363 601.74005,237.3158 601.74005,257.42798 585.45107,273.71697 565.33889,273.71697 545.22672,273.71697 528.89724,257.42798 528.89724,237.3158 L 518.49112,237.3158 C 518.49112,263.1743 539.4804,284.1231 565.33889,284.1231 591.19738,284.1231 612.14617,263.1743 612.14617,237.3158 612.14617,215.32328 596.99388,196.83549 576.55482,191.80423 L 606.51796,161.88159 z" />
        <g
           id="g4409"
           transform="matrix(-1,0,0,-1,1130.6373,475.18252)"
           style="fill:#ffffff;fill-opacity:1">
          <path
             inkscape:connector-curvature="0"
             style="color:#000000;fill:#ffffff;fill-opacity:1;fill-rule:evenodd;stroke:none;stroke-width:20;marker:none;visibility:visible;display:inline;overflow:visible;enable-background:accumulate"
             id="path4996-4-0-4-2-1-9-8-5-8-9"
             d="M 565.33889,208.68886 C 549.53648,208.68886 536.71195,221.5134 536.71195,237.3158 536.71195,249.44666 544.27224,259.8031 554.93278,263.9587 L 554.93278,252.21639 C 550.20899,248.93456 547.11807,243.50557 547.11807,237.3158 547.11807,227.25972 555.28281,219.09498 565.33889,219.09498 575.39497,219.09498 583.51923,227.25972 583.51923,237.3158 583.51923,243.49554 580.44406,248.93283 575.74501,252.21639 L 575.74501,263.9587 C 586.39446,259.8031 593.92534,249.44666 593.92534,237.3158 593.92534,221.5134 581.1413,208.68886 565.33889,208.68886 z" />
          <path
             inkscape:connector-curvature="0"
             style="color:#000000;fill:#ffffff;fill-opacity:1;fill-rule:evenodd;stroke:none;stroke-width:20;marker:none;visibility:visible;display:inline;overflow:visible;enable-background:accumulate"
             id="rect5023-1-6-7-7-5-2-9-1-8-8"
             d="M 565.33889,232.0925 C 562.46572,232.0925 560.11559,234.44263 560.11559,237.3158 L 560.11559,268.49366 570.52171,268.49366 570.52171,237.3158 C 570.52171,234.44263 568.21206,232.0925 565.33889,232.0925 z" />
        </g>
        <path
           inkscape:connector-curvature="0"
           style="fill:#ffffff;fill-opacity:1;stroke:none"
           id="path5018-1-3-2-1-4-7-5-6"
           d="M 630.85289,149.49143 C 625.13057,149.54583 620.48901,150.34471 619.35352,151.03007 617.08249,152.40093 616.54605,155.68774 617.248,156.45583 617.94995,157.22367 628.67846,164.11428 633.36331,166.37606 645.97776,172.46651 632.07564,195.772 621.21609,191.60178 613.51988,188.64641 604.78917,179.84457 603.31919,179.77849 601.84923,179.71369 599.95568,180.70479 599.47257,183.26069 598.98954,185.8166 602.48098,198.15758 611.25537,207.75758 621.78463,219.2778 638.18171,206.54907 638.18171,217.07044 L 638.18171,265.94275 A 13.017768,13.017768 0 0 0 664.21724,265.94275 L 664.21724,203.50605 664.21724,188.92939 C 664.21724,183.4623 670.92006,161.54062 648.74979,152.36627 643.37538,150.14239 636.5752,149.43705 630.85289,149.49143 z" />
      </g>
      <path
         inkscape:connector-curvature="0"
         style="color:#000000;fill:#ffffff;fill-opacity:1;fill-rule:evenodd;stroke:none;stroke-width:10.41600037;marker:none;visibility:visible;display:inline;overflow:visible;enable-background:accumulate"
         id="path7438-70-0-9-0-2"
         d="M 297.14286,291.19777 C 227.07199,291.19777 170.26414,348.00557 170.26414,418.07648 170.26414,488.14728 227.07199,544.95517 297.14286,544.95517 367.21368,544.95517 424.02158,488.14728 424.02158,418.07648 424.02158,348.00557 367.21368,291.19777 297.14286,291.19777 z M 297.14286,308.58327 C 357.60318,308.58327 406.59688,357.61617 406.59688,418.07648 406.59688,478.53678 357.60318,527.53047 297.14286,527.53047 236.67063,527.91927 188.49752,471.59748 187.64969,418.07648 187.64969,357.61617 236.6826,308.58327 297.14292,308.58327 z" />
    </g>
    <text
       xml:space="preserve"
       style="font-style:normal;font-variant:normal;font-weight:normal;font-stretch:normal;font-size:61.7211px;line-height:0%;font-family:'Politics Head';-inkscape-font-specification:'Politics Head, Normal';font-variant-ligatures:normal;font-variant-caps:normal;font-variant-numeric:normal;font-variant-east-asian:normal;text-align:start;letter-spacing:0px;word-spacing:0px;writing-mode:lr-tb;text-anchor:start;fill:#ffffff;fill-opacity:1;stroke:none;stroke-width:5.14341"
       x="107.94274"
       y="813.37653"
       id="text3060"
       transform="scale(0.77809903,1.2851835)"><tspan
         sodipodi:role="line"
         id="tspan841"
         x="107.94274"
         y="813.37653"
         style="font-style:normal;font-variant:normal;font-weight:normal;font-stretch:normal;font-size:61.7211px;font-family:'Politics Head';-inkscape-font-specification:'Politics Head, Normal';font-variant-ligatures:normal;font-variant-caps:normal;font-variant-numeric:normal;font-variant-east-asian:normal;stroke-width:5.14341">OCCUPIED</tspan></text>
  </g>
</svg>
